X:14884
T:Savourys Hornpipe. JC.133
M:C
L:1/8
Q:180
S:John Clare,Poet,Helpstone (1793-1864)
R:Hornpipe
O:England
A:Northamptonshire
N:First word of title unclear. Similar to Nelson's Hp.
Z:P Headford
K:D
AF|D2d2d2cd|(ec)Ac"qu"d2de|fdfd gege|afdf ecAF|!
D2d2d2dd|ecAcd2de|fefd cBAG|A2A2A2:|!
|:fg|(ag)fe dcBA|B2G2G2ga|bagf edcB|c2A2A2fa|!
afaf bgbg|afaf bgbg|afbg fedc|d2d2d2:|]
